X:1
T:Consider my affliction, Lord
T:Consider my affliction, Lord (John Wall Callcott)
C:John Wall Callcott
Z:p140, The Psalms of David,
Z:ed. S. Arnold and J. W. Callcott,
Z:London: 1791
%%score [ 1 2 3 4 ]
L:1/8
M:3/2
K:Gmin
V:1 treble nm="Soprano" snm="S."
V:2 treble nm="Alto" snm="A."
V:3 treble-8 transpose=-12 nm="Tenor" snm="T."
V:4 bass nm="Bass" snm="B."
V:1
 d4 | B8 G4 | F8 d4 | (c4 B4) A4 | G8 A4 | B3 A B4 c4 | d8 z4 | z12 | z8 d4 | G3 c B4 A4 | B8 z4 | %11
w: Since|great thy|ten- der|mer- * cies|are To|all who thee a-|dore,||to|all who thee a-|dore;|
w: Con-|si- der|my af-|flic- * tion,|Lord, And|me from bond- age|draw,||and|me from bond- age|draw:|
w: Plead|thou my|cause; to|that _ and|me Thy|time- ly aid af-|ford,||thy|time- ly aid af-|ford;|
 (d2 c2) (B2 A2) (B2 G2) | ^F4 G8 | (A4 B4) d4 | (d12- | d12- | d2 c2) (e2 d2) (c2 B2) | A8 d4 | %18
w: Ac- * cor- * ding _|to thy|judg- * ments,|Lord,|_|* * judg- * ments, _|Lord, My|
w: Think _ on _ thy _|ser- vant|in _ dis-|tress,|_|* * in _ dis- *|tress, Who|
w: With _ beams _ of _|mer- cy|quick- * en|me,|_|* * quick- * en _|me, Ac-|
 B3 =B c4 d4 | e8 d4 | c3 c B4 A4 | G8 |] %22
w: fain- ting hopes re-|store, my|fain- ting hopes re-|store.|
w: ne’er for- gets thy|law, who|ne’er for- gets thy|law.|
w: cor- ding to thy|word, ac-|cor- ding to thy|word.|
V:2
 ^F4 | G8 B,4 | D8 D4 | (E4 D6) C2 | B,8 D4 | G3 ^F G4 A4 | B8 z4 | z12 | z8 F4 | E3 E D4 C4 | %10
w: Since|great thy|ten- der|mer- * cies|are To|all who thee a-|dore,||to|all who thee a-|
w: Con-|si- der|my af-|flic- * tion,|Lord, And|me from bond- age|draw,||and|me from bond- age|
w: Plead|thou my|cause; to|that _ and|me Thy|time- ly aid af-|ford,||thy|time- ly aid af-|
 D8 z4 | z12 | z12 | (D2 C2) (B,2 A,2) (B,2 G,2) | ^F,4 G,8 | (A,2 C2 B,2 D2) (C2 B,2) | G4 G4 G4 | %17
w: dore;|||Ac- * cor- * ding _|to thy|judg- * * * ments, _|Lord, judg- ments,|
w: draw:|||Think _ on _ thy _|ser- vant|in _ _ _ dis- *|tress, in dis-|
w: ford;|||With _ beams _ of _|mer- cy|quick- * * * en _|me, quick- en|
 D8 D4 | D3 D E4 =B,4 | C8 D4 | E3 E D6 C2 | B,8 |] %22
w: Lord, My|fain- ting hopes re-|store, my|fain- ting hopes re-|store.|
w: tress, Who|ne’er for- gets thy|law, who|ne’er for- gets thy|law.|
w: me, Ac-|cor- ding to thy|word, ac-|cor- ding to thy|word.|
V:3
 d4 | d8 B4 | B8 B4 | G8 ^F4 | G8 z4 | z12 | z8 c4 | d3 c d4 e4 | f8 B4 | B3 G F4 F4 | F8 z4 | %11
w: Since|great thy|ten- der|mer- cies|are||To|all who thee a-|dore, to|all who thee a-|dore;|
w: Con-|si- der|my af-|flic- tion,|Lord,||And|me from bond- age|draw, and|me from bond- age|draw:|
w: Plead|thou my|cause; to|that and|me||Thy|time- ly aid af-|ford, thy|time- ly aid af-|ford;|
 z12 | (d2 c2) (B2 A2) (B2 G2) | ^F4 G8 | A4 B8 | (c2 A2) (G2 B2) (A2 G2) | %16
w: |Ac- * cor- * ding _|to thy|judg- ments,|Lord, _ judg- * ments, _|
w: |Think _ on _ thy _|ser- vant|in dis-|tress, _ in _ dis- *|
w: |With _ beams _ of _|mer- cy|quick- en|me, _ quick- * en _|
 (B2 A2) (c2 B2) (A2 G2) | ^F8 A4 | G3 G G4 F4 | E4 G8 | G3 G G4 ^F4 | G8 |] %22
w: Lord, _ judg- * ments, _|Lord, My|fain- ting hopes re-|store, my|fain- ting hopes re-|store.|
w: tress, _ in _ dis- *|tress, Who|ne’er for- gets thy|law, who|ne’er for- gets thy|law.|
w: me, _ quick- * en _|me, Ac-|cor- ding to thy|word, ac-|cor- ding to thy|word.|
V:4
 D,4 | G,8 E,4 | B,,8 B,,4 | C,4"^64""^5#" D,8 | G,,8 z4 | z12 | z8 F,4 | B,3 A, B,4"^6" C4 | %8
w: Since|great thy|ten- der|mer- cies|are||To|all who thee a-|
w: Con-|si- der|my af-|flic- tion,|Lord,||And|me from bond- age|
w: Plead|thou my|cause; to|that and|me||Thy|time- ly aid af-|
"^6" D8 B,4 |"^5" E,3"^6" E,"^64" F,4"^53" F,4 | B,,8 z4 | z12 | z12 | z12 | %14
w: dore, to|all who thee a-|dore;||||
w: draw, and|me from bond- age|draw:||||
w: ford, thy|time- ly aid af-|ford;||||
"^#" (D,2 C,2)"^6" (B,,2 A,,2) (B,,2 G,,2) |"^6" ^F,4 G,8 |"^9""^8" C,8 C,4 | %17
w: Ac- * cor- * ding _|to thy|judg- ments,|
w: Think _ on _ thy _|ser- vant|in dis-|
w: With _ beams _ of _|mer- cy|quick- en|
"^Notes: The first verse only of the text is underlaid in the source, with the other verses given here printed after the music.The parts are identified in the source as Treble, Counter, Tenor and Bass: the top three parts are in the treble clef, with theCounter and Tenor an octave above sounding pitch. This setting is attributed ‘Callcott’ in the source.""^#" D,8 D,4 | %18
w: Lord, My|
w: tress, Who|
w: me, Ac-|
 G,3"^Ä2" F,"^6" E,4"^´" D,4 | C,8"^6" B,,4 | C,3 C,"^64" D,4"^5#" D,4 | G,,8 |] %22
w: fain- ting hopes re-|store, my|fain- ting hopes re-|store.|
w: ne’er for- gets thy|law, who|ne’er for- gets thy|law.|
w: cor- ding to thy|word, ac-|cor- ding to thy|word.|

